X:1
T:Title
%%score ( 1 2 ) { ( 3 5 ) | 4 }
L:1/8
Q:1/4=140
M:2/2
K:D
V:1 treble nm="Grand Piano, Staff 1"
V:2 treble 
V:3 bass nm="Choir Pad, Warsaw, 66.66.88"
V:5 bass 
V:4 bass 
V:1
 [Fd]4 [EA]3 [EG] | [DF]4 D4 | [EA]6 [DF]2 | D2- [DA]2 [DB]2 [Ec]2 | [Dd]4 e2 d2 | [Ec]6 A2 | %6
w: By~Thomas~Clark~(1775\-1859)~ * *||||||
 [Fd]4 c2 B2 | A2- [EA]2 [DB]4 | [CE]6 [DF]2 | .G4 z4 | [DF]4 [CE]4 | D6 [FA]2 | [EA]4 [CG]4 | %13
w: |||||||
 [DF]6 [EA]2 | [Dd]4 [DB]4 | [CA]6 [EA]2 | [Dd]4 [Ge]4 | f2 d2 [FA]2 [EG]2 | [DF]4 [CE]4 | D8 |] %20
w: |||||||
V:2
 x8 | x8 | x8 | .G4 z4 | z4 G4 | x8 | z4 G4 | .F4 z4 | x8 | D2- [DB]2 [DA]2 [EG]2 | x8 | x8 | x8 | %13
 x8 | x8 | x8 | x8 | F4 z4 | x8 | x8 |] %20
V:3
 A,4 A,3 A, | A,4 B,4 | C6 A,2 | B,2 A,2 z2 E,2 | A,4 B,4 | A,6 A,2 | A,4 G,4 | A,4 D4 | A,6 A,2 | %9
 B,2 G,2 A,2 B,2 | A,4 G,4 | F,6 A,2 | A,4 A,4 | A,6 E,2 | F,4 ^G,4 | A,4 A,2 A,2 | A,4 B,2 C2 | %17
 D2 A,2 A,2 B,2 | A,4 G,2 G,2 | F,8 |] %20
V:4
 D,4 C,3 C, | D,4 B,,4 | A,,6 D,2 | G,2 F,2 z4 | F,4 G,4 | z8 | D,4 E,4 | F,4 G,4 | z4 z2 D,2 | %9
 .G,4 F,2 G,2 | z4 A,,4 | D,6 D,2 | C,4 A,,4 | D,6 C,2 | B,,4 E,4 | A,,4 z2 G,2 | F,4 E,4 | %17
 D,4 F,2 G,2 | z4 A,,4 | D,8 |] %20
V:5
 x8 | x8 | x8 | z4 G,4 | x8 | x8 | x8 | x8 | x8 | x8 | x8 | x8 | x8 | x8 | x8 | x8 | x8 | x8 | x8 | %19
 x8 |] %20

